X:1
T:Oh, I love a Maiden Fair
B:Singing Together, Autumn 1960, BBC Publications
F:http://www.folkinfo.org/songs
M:4/4     %Meter
L:1/8     %
K:Ab
A3 B c2 A2 |F2 A2 E4 |C2 E2 E2 A2 |B3 B B2 c2 |
w:Oh I love the maid-en fair, With the gold-en hair sae bon-ny,
A3 B c2 A2 |F2 A2 E4 |C2 E2 E2 c2 |B4 A4 |
w:Dressed in silk-en gown so rare; Thou hast left me drear-y.
A3 B c2 d2 |e3 d c4 |c2 f2 e2 c2 |B3 A B2 c2 |
w:Though I have but lit-tle gear, Yet I'd ev-er make thee hap-py,
A3 B c2 A2 |F2 A2 E4 |C2 E2 E2 c2 |B4 A4 |]
w:Fish for sal-mon, chase the deer, All to please me dear-y.
W:Oh I love the maiden fair,
W:With the golden hair sae bonny,
W:Dressed in silken gown so rare;
W:Thou hast left me dreary.
W:Though I have but little gear
W:Yet I'd ever make thee happy,
W:Fish for salmon, chase the deer,
W:All to please me deary.
W:
W:Oh I love the maiden fair,
W:With the golden hair sae bonny,
W:Dressed in silken gown so rare;
W:Thou hast left me dreary.
W:O my heart is sad this day,
W:And will ne'er again be happy,
W:'Tis for thee, my love, I'm wae,
W:Would that I were near thee.
W:
W:Oh I love the maiden fair,
W:With the golden hair sae bonny,
W:Dressed in silken gown so rare;
W:Thou hast left me dreary.
